X:1
T: Welcome to Cork
C:
R:Jig
Q:180
K:G
M:6/8
L:1/16
Bc|:d2B2G2 d2B2G2|e2f2g2 d2B2G2|c2e2c2 B2d2B2|c2A2G2 F2E2D2|
d2B2G2 e2c2A2|g2a2g2 f2e2d2|f2e2d2 c2A2F2|1A2G2G2 G4Bc:|2A2G2G2 G4G2|
|:G2g2f2 g2a2g2|=f2d2e2 f6|=F2=f2e2 f2g2f2|e2d2c2 d2c2A2|
G2g2f2 g2a2g2|=f2d2e2 f6|c2d2e2 =f2c2A2|1A2G2G2 G4G2:|2A2G2G2 G4||
